X: 1
T: Northern Lights and Melting Snow
C: James Gray
R: strathspey
Z: 2017 John Chambers <jc:trillian.mit.edu>
B: Alex & James Gray "Tweeddale Collection" v.4 #10 p.27, p.52 #1,2,5
N: Recommended tune for "A New Approach" by Alex Gray
M: C
L: 1/16
K: Gm
"(D7)"g3a |\
"Gm"bg3 g3c BG3 G2B2 | "F"A4 f2g2 a3g (3f2g2a2 |\
"Gm"bg3 g3c BG3 G3B | "D"AD3 D3^F G4 g^fga |
"Gm"bg3 g3c "C"BG3 G2B2 | "F"A4 f2g2 a3g (3f2g2a2 |\
"Gm"bg3 g3c "Eb"BG3 G3B | "D"AD3 D3^F "Gm"G4 G2=F2 |
"Eb"EG3 G3E "Bb"D3E FD3 | "Cm"Cc3 c3e "D"d3c A^F3 |\
"Eb"G3F E3G "Bb"FD3 D2F2 | "Cm"Cc3 c2e2 "D"d4 g^fga |
"Gm"bg3 g3b "A"a=e3 e4 | "D"^f3=e (3d2e2f2 "Gm"gd3 d2B2 |\
"Cm"ec3 c3e "Gm"dG3 G3B | "D"AD3 D3^F "Gm"G4 |]
